assets/spark/icons/SpeedmeterFill.svg

<svg viewBox="0 0 24 24" xmlns="http://www.w3.org/2000/svg">
    <path fill-rule="evenodd" clip-rule="evenodd" d="M12 2C10.0222 2 8.08879 2.58647 6.4443 3.68528C4.79981 4.78409 3.51812 6.34588 2.76124 8.17314C2.00437 10.0004 1.80629 12.0111 2.19214 13.9509C2.57799 15.8907 3.53043 17.6725 4.92895 19.071C6.32747 20.4695 8.10927 21.422 10.0491 21.8078C11.9889 22.1937 13.9996 21.9956 15.8268 21.2388C17.6541 20.4819 19.2159 19.2001 20.3147 17.5556C21.4135 15.9112 22 13.9778 22 12C22 9.34782 20.9464 6.80428 19.0711 4.92892C17.1957 3.05356 14.6522 2 12 2ZM12 3.94997C14.135 3.94997 16.1825 4.79809 17.6922 6.30775C19.2019 7.81742 20.05 9.86499 20.05 12C20.0509 12.8493 19.9159 13.6933 19.65 14.5H13.725L17 9.04161C17.1199 8.82126 17.1502 8.56319 17.0847 8.32104C17.0192 8.0789 16.8629 7.87132 16.6482 7.74147C16.4336 7.61162 16.1772 7.56952 15.9323 7.62387C15.6874 7.67822 15.4729 7.82486 15.3333 8.03332L11.4583 14.5H4.35832C4.09244 13.6933 3.95742 12.8493 3.95834 12C3.95834 9.86644 4.80531 7.82013 6.31318 6.3107C7.82104 4.80128 9.86647 3.95218 12 3.94997Z"/>
</svg>

<svg viewBox="0 0 24 24" xmlns="http://www.w3.org/2000/svg">
  <path d="m12,2c-1.98,0-3.91.59-5.56,1.69-1.64,1.1-2.93,2.66-3.68,4.49-.76,1.83-.95,3.84-.57,5.78.39,1.94,1.34,3.72,2.74,5.12,1.4,1.4,3.18,2.35,5.12,2.74,1.94.39,3.95.19,5.78-.57,1.83-.76,3.39-2.04,4.49-3.68,1.1-1.64,1.69-3.58,1.69-5.56,0-2.65-1.05-5.2-2.93-7.07-1.88-1.88-4.42-2.93-7.07-2.93Zm0,1.95c2.14,0,4.18.85,5.69,2.36,1.51,1.51,2.36,3.56,2.36,5.69,0,.85-.13,1.69-.4,2.5h-5.92l3.27-5.46c.12-.22.15-.48.08-.72-.07-.24-.22-.45-.44-.58-.21-.13-.47-.17-.72-.12-.24.05-.46.2-.6.41l-3.88,6.47h-7.1c-.27-.81-.4-1.65-.4-2.5,0-2.13.85-4.18,2.35-5.69,1.51-1.51,3.55-2.36,5.69-2.36Z"/>
</svg>
